dist/images/icons/trash.svg

<svg width="18" height="20" viewBox="0 0 18 20" fill="none" xmlns="http://www.w3.org/2000/svg">
<path d="M3 4V3C2.44772 3 2 3.44772 2 4H3ZM15 4H16C16 3.44772 15.5523 3 15 3V4ZM3 5H15V3H3V5ZM14 4V18H16V4H14ZM14 18H4V20H14V18ZM4 18V4H2V18H4ZM4 18H4H2C2 19.1046 2.89543 20 4 20V18ZM14 18V20C15.1046 20 16 19.1046 16 18H14Z" fill="#696969"/>
<path d="M1 4H17" stroke="#696969" stroke-width="2" stroke-linecap="round" stroke-linejoin="round"/>
<path d="M13 4V5C13.5523 5 14 4.55228 14 4H13ZM5 4H4C4 4.55228 4.44772 5 5 5V4ZM6 2H12V0H6V2ZM12 2V4H14V2H12ZM13 3H5V5H13V3ZM6 4V2H4V4H6ZM12 2H14C14 0.895431 13.1046 0 12 0V2ZM6 0C4.89543 0 4 0.89543 4 2H6V2V0Z" fill="#696969"/>
</svg>

<svg width="18" height="20" fill="none" xmlns="http://www.w3.org/2000/svg"><path d="M3 4V3a1 1 0 00-1 1h1zm12 0h1a1 1 0 00-1-1v1zM3 5h12V3H3v2zm11-1v14h2V4h-2zm0 14H4v2h10v-2zM4 18V4H2v14h2zm0 0H2a2 2 0 002 2v-2zm10 0v2a2 2 0 002-2h-2z" fill="#696969"/><path d="M1 4h16" stroke="#696969" stroke-width="2" stroke-linecap="round" stroke-linejoin="round"/><path d="M13 4v1a1 1 0 001-1h-1zM5 4H4a1 1 0 001 1V4zm1-2h6V0H6v2zm6 0v2h2V2h-2zm1 1H5v2h8V3zM6 4V2H4v2h2zm6-2h2a2 2 0 00-2-2v2zM6 0a2 2 0 00-2 2h2V0z" fill="#696969"/></svg>
